Sources/FrostedUI/Resources/Icons.xcassets/dna20.imageset/dna-20.svg

<svg width="20" height="20" viewBox="0 0 20 20" fill="none" xmlns="http://www.w3.org/2000/svg" data-fui-icon="true">
  <path
    fill-rule="evenodd"
    clip-rule="evenodd"
    d="M15.7498 1C15.3356 1 14.9998 1.33579 14.9998 1.75C14.9998 2.00775 14.9855 2.2576 14.9579 2.5L5.04192 2.5C5.01438 2.2576 5.00001 2.00776 5.00001 1.75C5.00001 1.33579 4.66422 1 4.25001 1C3.83579 1 3.50001 1.33579 3.50001 1.75C3.50001 5.87798 6.53246 8.33634 8.74911 10C6.53246 11.6636 3.5 14.122 3.5 18.25C3.5 18.6642 3.83579 19 4.25 19C4.66421 19 5 18.6642 5 18.25C5 17.9922 5.01437 17.7424 5.04191 17.5L14.9577 17.5C14.9854 17.7426 14.9999 17.9925 14.9999 18.25C14.9999 18.6642 15.3357 19 15.7499 19C16.1641 19 16.4999 18.6642 16.4999 18.25C16.4999 15.0452 14.6823 12.8669 12.8619 11.2874C12.549 11.016 12.0753 11.0495 11.8039 11.3624C11.5324 11.6753 11.566 12.149 11.8788 12.4204C12.095 12.608 12.3068 12.8009 12.5118 13L7.49073 13C8.29315 12.2232 9.1937 11.5458 10.0392 10.9097C10.1739 10.8084 10.3077 10.7078 10.439 10.6083C10.4407 10.6071 10.4425 10.6058 10.4442 10.6046C10.4516 10.5991 10.459 10.5935 10.4663 10.5877C10.6132 10.4764 10.7675 10.3613 10.9275 10.2419C13.1592 8.57616 16.4998 6.08278 16.4998 1.75C16.4998 1.33579 16.1641 1 15.7498 1ZM6.19798 14.5C5.87812 14.9632 5.60665 15.4607 5.40343 16L14.595 16C14.392 15.4623 14.1209 14.9646 13.8006 14.5L6.19798 14.5ZM5.40344 4L14.5964 4C14.3932 4.53931 14.1218 5.0368 13.8019 5.5L6.19799 5.5C5.87812 5.0368 5.60666 4.53931 5.40344 4ZM7.49074 7L12.5092 7C11.7192 7.76484 10.8341 8.43328 10 9.06073C9.1659 8.43327 8.28076 7.76483 7.49074 7Z"
    fill="currentColor"
  />
</svg>

<svg xmlns="http://www.w3.org/2000/svg" width="20" height="20" fill="none" data-fui-icon="true" viewBox="0 0 20 20"><path fill="currentColor" fill-rule="evenodd" d="M15.75 1a.75.75 0 0 0-.75.75q0 .387-.042.75H5.042A7 7 0 0 1 5 1.75a.75.75 0 0 0-1.5 0c0 4.128 3.032 6.586 5.25 8.25-2.218 1.664-5.25 4.122-5.25 8.25a.75.75 0 0 0 1.5 0q0-.387.042-.75h9.916q.041.364.042.75a.75.75 0 0 0 1.5 0c0-3.205-1.818-5.383-3.638-6.963a.75.75 0 0 0-.983 1.133q.325.281.633.58H7.49c.802-.777 1.703-1.454 2.548-2.09l.4-.302q.003 0 .005-.003l.022-.017q.221-.168.462-.346C13.159 8.576 16.5 6.082 16.5 1.75a.75.75 0 0 0-.75-.75M6.198 14.5a7 7 0 0 0-.795 1.5h9.192a7 7 0 0 0-.794-1.5zM5.403 4h9.193a7 7 0 0 1-.794 1.5H6.198A7 7 0 0 1 5.403 4m2.088 3h5.018c-.79.765-1.675 1.433-2.509 2.06C9.166 8.434 8.28 7.766 7.49 7" clip-rule="evenodd"/></svg>
